X: 18900
T: Incahoots
R: polka
M: 2/4
K: Dmixolydian
D3/2F/ AB|cB/A/ GB|A2 g2|fd ce|dD FA|cB/A/ GB|A2 =F3/2E/|
DD FA|cB/A/ GB|A2 g2|fd ce|dD FA|cB/A/ GB|A2 =F3/2E/|D2 z2|
a2 g2|fd ce|d a2 a|ga c'a|d'c' aa|gg fd|ce dD|FA cB/A/|=F3/2E/ D2|
a2 g2|fd ce|d a2 a|ga c'a|d'c' aa|gg fd|ce dD|FA cB/A/|=F2|

